figures/n.svg

<?xml version="1.0" encoding="UTF-8" standalone="no"?>
<svg
   xmlns:readme2tex="http://github.com/leegao/readme2tex/"
   xmlns:dc="http://purl.org/dc/elements/1.1/"
   xmlns:cc="http://creativecommons.org/ns#"
   xmlns:rdf="http://www.w3.org/1999/02/22-rdf-syntax-ns#"
   xmlns:svg="http://www.w3.org/2000/svg"
   xmlns="http://www.w3.org/2000/svg"
   xmlns:xlink="http://www.w3.org/1999/xlink"
   id="svg15"
   readme2tex:offset="2.4906600000000054"
   viewBox="-52.07469 -69.509329 14.94401 9.963003"
   height="9.9630032pt"
   width="14.94401pt"
   version="1.1">
  <metadata
     id="metadata19">
    <rdf:RDF>
      <cc:Work
         rdf:about="">
        <dc:format>image/svg+xml</dc:format>
        <dc:type
           rdf:resource="http://purl.org/dc/dcmitype/StillImage" />
        <dc:title></dc:title>
      </cc:Work>
    </rdf:RDF>
  </metadata>
  <defs
     id="defs6">
    <path
       d="m 3.297634,2.391034 c 0,-0.029888 0,-0.049814 -0.169365,-0.219178 -1.24533,-1.255293 -1.564135,-3.138232 -1.564135,-4.662516 0,-1.733499 0.378581,-3.466999 1.603986,-4.712329 0.129514,-0.119551 0.129514,-0.139477 0.129514,-0.169365 0,-0.069738 -0.039851,-0.099626 -0.099627,-0.099626 -0.099626,0 -0.996264,0.677459 -1.584059,1.942715 -0.508095,1.09589 -0.627647,2.201743 -0.627647,3.038605 0,0.777086 0.109589,1.982565 0.657535,3.108344 0.597758,1.225404 1.454545,1.872976 1.554171,1.872976 0.059776,0 0.099627,-0.029888 0.099627,-0.099626 z"
       id="g1-40" />
    <path
       d="m 2.879203,-2.49066 c 0,-0.777086 -0.109589,-1.982565 -0.657534,-3.108344 C 1.62391,-6.824408 0.767123,-7.47198 0.667497,-7.47198 c -0.059776,0 -0.099627,0.03985 -0.099627,0.099626 0,0.029888 0,0.049814 0.189291,0.229141 0.976338,0.986301 1.544209,2.570361 1.544209,4.652553 0,1.703611 -0.368618,3.457036 -1.603985,4.712329 C 0.56787,2.34122 0.56787,2.361146 0.56787,2.391034 c 0,0.059775 0.039851,0.099626 0.099627,0.099626 0.099626,0 0.996264,-0.67746 1.58406,-1.942715 0.508094,-1.09589 0.627646,-2.201743 0.627646,-3.038605 z"
       id="g1-41" />
    <path
       d="m 3.317559,-0.757161 c 0.039851,0.398506 0.308842,0.816937 0.777086,0.816937 0.209216,0 0.816937,-0.139477 0.816937,-0.946451 V -1.444583 H 4.662516 v 0.557908 c 0,0.577833 -0.249066,0.637609 -0.358655,0.637609 -0.328768,0 -0.368618,-0.448319 -0.368618,-0.498132 v -1.992528 c 0,-0.418431 0,-0.806974 -0.358655,-1.175592 -0.388543,-0.388543 -0.886675,-0.547945 -1.364882,-0.547945 -0.816936,0 -1.504359,0.468244 -1.504359,1.125779 0,0.298879 0.199253,0.468244 0.458282,0.468244 0.278954,0 0.458281,-0.199253 0.458281,-0.458282 0,-0.119551 -0.049813,-0.448319 -0.508094,-0.458281 0.268991,-0.348693 0.75716,-0.458282 1.075965,-0.458282 0.488169,0 1.05604,0.388543 1.05604,1.275218 v 0.368618 c -0.508095,0.029888 -1.20548,0.059776 -1.833126,0.358655 -0.747198,0.33873 -0.996264,0.856787 -0.996264,1.295143 0,0.806974 0.966376,1.05604 1.594022,1.05604 0.657535,0 1.115816,-0.398506 1.305106,-0.86675 z M 3.247821,-2.391034 v 0.996264 c 0,0.946451 -0.71731,1.285181 -1.165629,1.285181 -0.48817,0 -0.896638,-0.348692 -0.896638,-0.846824 0,-0.547946 0.418431,-1.374845 2.062267,-1.434621 z"
       id="g1-97" />
    <path
       d="m 1.115816,-5.927771 v 4.861769 c 0,0.528019 -0.079701,0.707347 -0.587796,0.71731 -0.109589,0 -0.278954,0.009962 -0.278954,0.169364 C 0.249066,0 0.408468,0 0.587796,0 h 1.544209 c 0.179328,0 0.328767,0 0.328767,-0.179328 0,-0.159402 -0.159402,-0.169364 -0.298879,-0.169364 C 1.613948,-0.358655 1.534247,-0.56787 1.534247,-1.085928 v -4.562889 l 4.30386,5.688668 c 0.089664,0.119551 0.139477,0.149439 0.209216,0.149439 0.169364,0 0.169364,-0.159402 0.169364,-0.328767 v -5.628892 c 0,-0.557907 0.089664,-0.697384 0.547946,-0.707347 0.059775,0 0.22914,-0.00996 0.22914,-0.169365 0,-0.179327 -0.149439,-0.179327 -0.328767,-0.179327 H 5.210461 c -0.179328,0 -0.33873,0 -0.33873,0.179327 0,0.169365 0.179328,0.169365 0.288917,0.169365 0.557907,0.00996 0.637609,0.209215 0.637609,0.737235 v 3.118307 L 2.789539,-6.684932 C 2.689913,-6.824408 2.660025,-6.824408 2.430884,-6.824408 H 0.697385 c -0.179328,0 -0.328767,0 -0.328767,0.179327 0,0.14944 0.149439,0.169365 0.209215,0.169365 0.268991,0.029888 0.458282,0.18929 0.557908,0.308842 -0.019925,0.079701 -0.019925,0.099626 -0.019925,0.239103 z M 5.867995,-0.508095 1.534247,-6.236613 C 1.43462,-6.356164 1.43462,-6.37609 1.325031,-6.475716 h 1.185554 l 3.35741,4.533001 z"
       id="g0-78" />
  </defs>
  <g
     fill-opacity="0.9"
     id="page1">
    <use
       height="100%"
       width="100%"
       id="use8"
       xlink:href="#g1-40"
       y="-62.03735"
       x="-52.074692" />
    <use
       height="100%"
       width="100%"
       id="use10"
       xlink:href="#g0-78"
       y="-62.03735"
       x="-48.200317" />
    <use
       height="100%"
       width="100%"
       id="use12"
       xlink:href="#g1-41"
       y="-62.03735"
       x="-41.005054" />
  </g>
</svg>

<ns0:svg xmlns:ns0="http://www.w3.org/2000/svg" xmlns:ns1="http://www.w3.org/1999/xlink" version="1.1" width="14.944007999999993pt" height="14.94395999999999pt" viewBox="-52.07469 -69.509329 14.944007999999993 14.94395999999999" readme2tex:offset="2.4906600000000054" xmlns:readme2tex="http://github.com/leegao/readme2tex/">
<ns0:defs>
<ns0:path id="g1-40" d="M3.297634 2.391034C3.297634 2.361146 3.297634 2.34122 3.128269 2.171856C1.882939 .916563 1.564134-.966376 1.564134-2.49066C1.564134-4.224159 1.942715-5.957659 3.16812-7.202989C3.297634-7.32254 3.297634-7.342466 3.297634-7.372354C3.297634-7.442092 3.257783-7.47198 3.198007-7.47198C3.098381-7.47198 2.201743-6.794521 1.613948-5.529265C1.105853-4.433375 .986301-3.327522 .986301-2.49066C.986301-1.713574 1.09589-.508095 1.643836 .617684C2.241594 1.843088 3.098381 2.49066 3.198007 2.49066C3.257783 2.49066 3.297634 2.460772 3.297634 2.391034Z" />
<ns0:path id="g1-41" d="M2.879203-2.49066C2.879203-3.267746 2.769614-4.473225 2.221669-5.599004C1.62391-6.824408 .767123-7.47198 .667497-7.47198C.607721-7.47198 .56787-7.43213 .56787-7.372354C.56787-7.342466 .56787-7.32254 .757161-7.143213C1.733499-6.156912 2.30137-4.572852 2.30137-2.49066C2.30137-.787049 1.932752 .966376 .697385 2.221669C.56787 2.34122 .56787 2.361146 .56787 2.391034C.56787 2.450809 .607721 2.49066 .667497 2.49066C.767123 2.49066 1.663761 1.8132 2.251557 .547945C2.759651-.547945 2.879203-1.653798 2.879203-2.49066Z" />
<ns0:path id="g1-97" d="M3.317559-.757161C3.35741-.358655 3.626401 .059776 4.094645 .059776C4.303861 .059776 4.911582-.079701 4.911582-.886675V-1.444583H4.662516V-.886675C4.662516-.308842 4.41345-.249066 4.303861-.249066C3.975093-.249066 3.935243-.697385 3.935243-.747198V-2.739726C3.935243-3.158157 3.935243-3.5467 3.576588-3.915318C3.188045-4.303861 2.689913-4.463263 2.211706-4.463263C1.39477-4.463263 .707347-3.995019 .707347-3.337484C.707347-3.038605 .9066-2.86924 1.165629-2.86924C1.444583-2.86924 1.62391-3.068493 1.62391-3.327522C1.62391-3.447073 1.574097-3.775841 1.115816-3.785803C1.384807-4.134496 1.872976-4.244085 2.191781-4.244085C2.67995-4.244085 3.247821-3.855542 3.247821-2.968867V-2.600249C2.739726-2.570361 2.042341-2.540473 1.414695-2.241594C.667497-1.902864 .418431-1.384807 .418431-.946451C.418431-.139477 1.384807 .109589 2.012453 .109589C2.669988 .109589 3.128269-.288917 3.317559-.757161ZM3.247821-2.391034V-1.39477C3.247821-.448319 2.530511-.109589 2.082192-.109589C1.594022-.109589 1.185554-.458281 1.185554-.956413C1.185554-1.504359 1.603985-2.331258 3.247821-2.391034Z" />
<ns0:path id="g0-78" d="M1.115816-5.927771V-1.066002C1.115816-.537983 1.036115-.358655 .52802-.348692C.418431-.348692 .249066-.33873 .249066-.179328C.249066 0 .408468 0 .587796 0H2.132005C2.311333 0 2.460772 0 2.460772-.179328C2.460772-.33873 2.30137-.348692 2.161893-.348692C1.613948-.358655 1.534247-.56787 1.534247-1.085928V-5.648817L5.838107 .039851C5.927771 .159402 5.977584 .18929 6.047323 .18929C6.216687 .18929 6.216687 .029888 6.216687-.139477V-5.768369C6.216687-6.326276 6.306351-6.465753 6.764633-6.475716C6.824408-6.475716 6.993773-6.485679 6.993773-6.645081C6.993773-6.824408 6.844334-6.824408 6.665006-6.824408H5.210461C5.031133-6.824408 4.871731-6.824408 4.871731-6.645081C4.871731-6.475716 5.051059-6.475716 5.160648-6.475716C5.718555-6.465753 5.798257-6.266501 5.798257-5.738481V-2.620174L2.789539-6.684932C2.689913-6.824408 2.660025-6.824408 2.430884-6.824408H.697385C.518057-6.824408 .368618-6.824408 .368618-6.645081C.368618-6.495641 .518057-6.475716 .577833-6.475716C.846824-6.445828 1.036115-6.286426 1.135741-6.166874C1.115816-6.087173 1.115816-6.067248 1.115816-5.927771ZM5.867995-.508095L1.534247-6.236613C1.43462-6.356164 1.43462-6.37609 1.325031-6.475716H2.510585L5.867995-1.942715V-.508095Z" />
</ns0:defs>
<ns0:g id="page1" fill-opacity="0.9">
<ns0:use x="-52.07469" y="-62.037349" ns1:href="#g1-40" />
<ns0:use x="-48.200316" y="-62.037349" ns1:href="#g0-78" />
<ns0:use x="-41.005056" y="-62.037349" ns1:href="#g1-41" />
</ns0:g>
</ns0:svg>
